packages/icons/svg/Fill/phone-missed.svg

<svg width="24" height="24" viewBox="0 0 24 24" fill="none" xmlns="http://www.w3.org/2000/svg">
<g id="Icon/Fill/phone-missed">
<path id="Mask" fill-rule="evenodd" clip-rule="evenodd" d="M21.7505 15.9087C21.8325 16.1437 21.8955 16.3887 21.9355 16.6387C21.9775 16.8867 21.9995 17.1417 21.9995 17.4007C21.9995 19.9367 19.9365 21.9997 17.4005 21.9997C8.90851 21.9997 1.99951 15.0917 1.99951 6.59969C1.99951 4.06369 4.06351 1.99969 6.59951 1.99969C6.86051 1.99969 7.11651 2.02269 7.36551 2.06569C7.60851 2.10469 7.85451 2.16569 8.09151 2.24869C8.41651 2.36169 8.66151 2.63369 8.73851 2.96969L10.1075 8.93369C10.1825 9.26169 10.0875 9.60669 9.85451 9.84969C9.7177 9.9925 9.71352 9.99469 8.47963 10.642L8.47451 10.6447C9.46551 12.8067 11.2145 14.5527 13.3545 15.5277C14.0036 14.2864 14.0075 14.2827 14.1499 14.1463L14.1505 14.1457C14.3935 13.9117 14.7375 13.8197 15.0665 13.8927L21.0305 15.2617C21.3665 15.3387 21.6385 15.5827 21.7505 15.9087ZM17.2678 8.69819C16.8638 9.10019 16.2048 9.10019 15.8018 8.69819C15.3998 8.29519 15.3998 7.6362 15.8018 7.23219L16.5348 6.5002L15.8018 5.76719C15.3998 5.36419 15.3998 4.70519 15.8018 4.30219C16.2048 3.89919 16.8638 3.89919 17.2678 4.30219L17.9998 5.03519L18.7328 4.30219C19.1358 3.89919 19.7948 3.89919 20.1978 4.30219C20.6008 4.70519 20.6008 5.36419 20.1978 5.76719L19.4648 6.5002L20.1978 7.23219C20.6008 7.6362 20.6008 8.29519 20.1978 8.69819C19.7948 9.10019 19.1358 9.10019 18.7328 8.69819L17.9998 7.96519L17.2678 8.69819Z" fill="#000000"/>
</g>
</svg>

<svg fill="none" height="24" viewBox="0 0 24 24" width="24" xmlns="http://www.w3.org/2000/svg"><path clip-rule="evenodd" d="m21.7505 15.9085c.082.235.145.48.185.73.042.248.064.503.064.762 0 2.536-2.063 4.599-4.599 4.599-8.492 0-15.401-6.908-15.401-15.39999 0-2.536 2.064-4.6 4.6-4.6.261 0 .517.023.766.066.243.039.489.1.726.183.325.113.57.385.647.721l1.369 5.964c.075.328-.02.673-.253.916-.13681.14281-.14099.145-1.37488.79229l-.00512.0027c.991 2.162 2.74 3.908 4.88 4.883.6491-1.2412.653-1.245.7954-1.3814l.0006-.0006c.243-.234.587-.326.916-.253l5.964 1.369c.336.077.608.321.72.647zm-4.4827-7.21042c-.404.402-1.063.402-1.466 0-.402-.403-.402-1.062 0-1.466l.733-.732-.733-.733c-.402-.403-.402-1.062 0-1.465.403-.403 1.062-.403 1.466 0l.732.733.733-.733c.403-.403 1.062-.403 1.465 0s.403 1.062 0 1.465l-.733.733.733.732c.403.404.403 1.063 0 1.466-.403.402-1.062.402-1.465 0l-.733-.733z" fill="#6b7280" fill-rule="evenodd"/></svg>
